X:260
T: Banner
M: 6/8
L: 1/8
S: Luke O'Malley vol 1
Z: B.Black
R: jig
K: Edor
B, | E2 F GFE | BAB dBA | BdB B2 A | GBG AFD |
EB,E GEG | BAB dBA | BAG FAF | GEE E2 :|
B | e2 f gfe | g2 a bge | dcd fed | fag fed |
e2 f gfe | bge dBA | BAG FAF | GEE E2 :|
